alura/assets/api/cursos/desenho-volumes-iluminacao.svg

<svg width="50" height="50" viewBox="0 0 50 50" fill="none" xmlns="http://www.w3.org/2000/svg">
<path d="M31.5 35.7L42.6 47.8L10.8 48.1H9.00005H7.60005L1.30005 44.3L2.00005 28.7L29.4 18.6L29.8 31.6L31.5 35.7Z" fill="#FCC34F"/>
<path d="M29.9 11.4V8.09998L1.30005 18.3L1.50005 29.2L29.6 19.1L29.9 11.4Z" fill="#FDCF72"/>
<path d="M15.8 2.59998C8.2 2.59998 2 5.69998 2 9.59998V43.4C2 43.4 2.8 48 15.1 48C27.4 48 29.5 44.2 29.5 44.2V9.59998C29.6 5.69998 23.4 2.59998 15.8 2.59998Z" stroke="#444444" stroke-width="2.5" stroke-miterlimit="10"/>
<path d="M29.3999 31.2H41.9999C41.9999 31.2 49.4999 31.9999 49.4999 39.7999C49.4999 47.5999 42.3999 49.2 42.3999 49.2H16.3999L29.3999 45.4V31.2Z" fill="#444444"/>
<path d="M15.8 16.1C22.7587 16.1 28.4 13.1898 28.4 9.59998C28.4 6.01013 22.7587 3.09998 15.8 3.09998C8.84116 3.09998 3.19995 6.01013 3.19995 9.59998C3.19995 13.1898 8.84116 16.1 15.8 16.1Z" stroke="#444444" stroke-miterlimit="10"/>
<path d="M15.8 16.1V48.1" stroke="#444444" stroke-miterlimit="10"/>
<path d="M20.1001 15.6V47" stroke="#444444" stroke-width="0.75" stroke-miterlimit="10"/>
<path d="M23.5 14.5V45.9" stroke="#444444" stroke-width="0.5" stroke-miterlimit="10"/>
<path d="M26.3999 13.2V45.9" stroke="#444444" stroke-width="0.25" stroke-miterlimit="10"/>
</svg>

<svg xmlns="http://www.w3.org/2000/svg" id="Camada_3" x="0" y="0" version="1.1" viewBox="0 0 50 50" xml:space="preserve"><style>.st2{fill:#444}.st5{stroke-width:.75;stroke-linecap:round;stroke-linejoin:round}.st11,.st5{fill:none;stroke:#444;stroke-miterlimit:10}</style><path fill="#71bac0" d="M306 306.5l-23.1 8.5-9.4.1-4.1-1-1.8-.7v-16.1l37.6-8.5 1.3 5.7"/><path fill="#7ed0d6" d="M267.2 295.2l.1 4.4-.2 3.7 38.6-14.1-6-1.4-8.4.6-4.9-.2z"/><path d="M300.4 312.8c.8-1.3 1.2-2.9 1.2-4.5 0-5.1-4.2-9.3-9.3-9.3-5.1 0-9.3 4.2-9.3 9.3 0 5.1 4.2 9.3 9.3 9.3 2 0 3.8-.6 5.4-1.7l5.8 5.8c.4.4.9.6 1.5.6 1.1 0 2.1-.9 2.1-2.1 0-.6-.2-1.1-.6-1.5l-6.1-5.9zm-16.2-4.6c0-4.4 3.6-8 8-8s8 3.6 8 8-3.6 8-8 8-8-3.6-8-8zm20.6 12.7c-.2 0-.4-.1-.5-.2l-5.7-5.7c.4-.3.7-.7 1-1.1l5.7 5.7c.1.1.2.3.2.5.1.5-.3.8-.7.8z" class="st2"/><circle cx="292.2" cy="308.2" r="7.5" fill="none" stroke="#444" stroke-miterlimit="10" stroke-width="2"/><path fill="none" stroke="#444" stroke-linecap="round" stroke-linejoin="round" stroke-miterlimit="10" stroke-width="2.5" d="M280.2 321.6h13.4m-2.1-2.3l.7 2.2h-10.7l1.6-6.7h-13.6s-2.1-.4-2.1-2.4v-21.9s0-2.4 2.8-2.4h33.3s2.6 0 2.6 2.7v20.7s-.1.9-.6 1.7"/><path d="M280.9 308.1v-5.7s-.2-1-1.4-1c-1.4 0-1.5.9-1.5.9v5.5" class="st2"/><path d="M269.8 308.2H282" class="st5"/><path d="M272.7 307.9v-4.2s0-.8 1.5-.8 1.5.9 1.5.9v4.1m10.7-8.3V298s0-.9-1.5-.9-1.5.8-1.5.8v5s.6-1.5 2.9-3.1l.1-.2zm5.3-2.1v-4.1s0-.9-1.5-.9-1.5.8-1.5.8v5.2s2-.6 2.9-.6l.1-.4zm5.3 1.2v-2.1s0-.9-1.5-.9-1.5.8-1.5.8v1.6s1.9.4 2.9 1l.1-.4zm5.4 7.2v-12.8s0-.9-1.5-.9-1.5.8-1.5.8v7.8c.1.1 2.5 1.7 3 5.1z" class="st2"/><path fill="none" stroke="#444" stroke-linecap="round" stroke-linejoin="round" stroke-miterlimit="10" d="M267.4 311h14.2m20.6 0h4"/><path d="M287.8 307.1s.1-1.1 1-2.1c.5-.6 1.5-1.2 2.7-1.2m1.4 0s.5 0 1 .3" class="st5"/><path fill="none" stroke="#444" stroke-linecap="round" stroke-linejoin="round" stroke-miterlimit="10" stroke-width="2" d="M298.2 314.5l6.6 6.4.8-.8-6.5-6.2"/><path fill="#fcc34f" d="M31.5 35.7l11.1 12.1-31.8.3H7.6l-6.3-3.8.7-15.6 27.4-10.1.4 13z"/><path fill="#fdcf72" d="M29.9 11.4V8.1L1.3 18.3l.2 10.9 28.1-10.1z"/><path fill="none" stroke="#444" stroke-miterlimit="10" stroke-width="2.5" d="M15.8 2.6C8.2 2.6 2 5.7 2 9.6v33.8S2.8 48 15.1 48c12.3 0 14.4-3.8 14.4-3.8V9.6c.1-3.9-6.1-7-13.7-7z"/><path d="M29.4 31.2H42s7.5.8 7.5 8.6-7.1 9.4-7.1 9.4h-26l13-3.8V31.2z" class="st2"/><ellipse cx="15.8" cy="9.6" class="st11" rx="12.6" ry="6.5"/><path d="M15.8 16.1v32" class="st11"/><path fill="none" stroke="#444" stroke-miterlimit="10" stroke-width=".75" d="M20.1 15.6V47"/><path fill="none" stroke="#444" stroke-miterlimit="10" stroke-width=".5" d="M23.5 14.5v31.4"/><path fill="none" stroke="#444" stroke-miterlimit="10" stroke-width=".25" d="M26.4 13.2v32.7"/></svg>
